X: 38538
T: Stepping Stone, The
R: hornpipe
M: 4/4
K: Gmajor
GABc dG~G2|eGfd gG~G2|EGDG EGDG|(3ABc BA GFED|
GABc dG~G2|eGfd gG~G2|EGDG cedc|1 BAGF ~G3F:|2 BAGF G2Bc||
dG~G2 dG~G2|efgf edeG|edeB cBAG|FcBA GFED|
GABc dG~G2|eGfd gG~G2|EGDG cedc|1 BAGF G2Bc:|2 BAGF ~G3F||

